images/leaf-second.svg

<svg width="423" height="409" viewBox="0 0 423 409" fill="none" xmlns="http://www.w3.org/2000/svg">
<path fill-rule="evenodd" clip-rule="evenodd" d="M376.911 354.174C359.269 323.171 335.606 294.464 312.84 267.119C319.567 268.96 328.443 267.525 334.575 264.474C341.465 261.047 344.953 255.085 347.74 248.196C348.136 247.219 350.725 237.146 352.616 237.688C356.097 238.69 357.101 260.899 357.476 263.613C358.815 273.302 360.885 282.795 363.055 292.33C367.736 312.882 372.825 333.492 376.911 354.174ZM301.567 248.931C296.648 249.276 292.929 242.318 289.757 238.724C295.069 238.519 317.738 232.249 320.448 237.661C324.849 246.465 306.051 248.604 301.567 248.931ZM190.95 81.1113C190.929 84.0479 190.928 95.3801 186.347 91.8661C183.247 89.4858 181.557 78.8271 180.596 75.5576C178.635 68.8958 175.622 60.6892 175.966 53.6587C176.619 40.3529 185.348 49.431 187.338 56.5287C189.535 64.3544 190.987 72.9538 190.95 81.1113ZM225.956 139.401C231.745 135.773 229.422 142.544 227.245 145.773C221.125 154.859 219.771 144.333 225.956 139.401ZM212.917 108.283C211.691 101.682 212.299 92.7241 214.184 86.4131C215.664 81.4559 220.399 76.839 223.304 83.1727C225.716 88.431 221.153 102.253 218.721 107.426C216.745 111.633 214.028 115.208 212.917 108.283ZM187.767 110.305C188.85 122.973 177.823 127.61 178.184 113.147C178.407 104.298 185.832 97.7624 187.767 110.305ZM211.085 186.649C211.425 191.906 200.378 210.297 199.582 200.149C199.355 197.255 210.499 181.912 211.085 186.649ZM178.69 168.92C174.91 171.371 164.528 179.558 160.599 177.902C154.32 175.253 161.49 167.83 164.28 165.921C167.327 163.834 175.68 158.724 179.881 159.365C187.586 160.545 182.586 166.15 178.69 168.92ZM121.937 93.1727C112.564 97.1679 109.269 86.0077 107.245 79.3436C105.922 74.9843 101.247 65.8684 106.158 62.7565C114.984 57.1566 124.835 85.9476 121.937 93.1727ZM153.003 94.4863C151.572 90.0143 150.456 85.4459 149.055 80.9661C148.22 78.302 143.854 68.9198 144.38 66.6898C146.044 59.6146 151.759 63.1482 155.082 68.3347C158.492 73.6598 162.057 84.7685 161.698 90.8784C161.365 96.5454 156.074 103.131 153.003 94.4863ZM135.714 47.4569C133.254 39.6775 138.573 33.1368 144.671 41.8046C151.571 51.6071 141.087 61.9695 135.714 47.4569ZM149.205 184.969C149.563 192.084 125.442 202.809 119.99 199.531C112.812 195.217 127.553 189.849 131.651 187.719C135.112 185.923 148.195 176.813 149.205 184.969ZM106.453 174.362C100.332 176.085 94.0573 178.479 87.7611 179.343C79.1135 180.527 79.1868 175.674 85.6573 170.575C91.312 166.119 101.887 165.042 108.635 162.344C114.026 160.188 129.664 147.839 133.565 151.663C142.357 160.279 112.232 172.678 106.453 174.362ZM108.086 202.091C108.33 211.763 82.7178 215.003 76.9906 215.568C80.8336 212.834 106.335 188.754 108.086 202.091ZM59.6163 153.323C42.258 152.745 59.6973 140.108 65.5479 137.774C69.7942 136.077 79.7869 132.308 84.1069 135.861C95.4427 145.185 64.0813 153.493 59.6163 153.323ZM61.5872 117.975C61.9848 111.979 90.8745 102.944 92.5068 108.431C93.7922 112.752 62.973 130.557 61.5872 117.975ZM103.147 125.209C114.607 117.357 130.123 124.735 112.94 133.84C109.568 135.624 100.742 140.443 97.0019 137.696C91.7191 133.817 100.111 127.167 103.147 125.209ZM419.311 151.607C416.47 146.577 412.379 139.55 407.673 144.294C405.844 146.134 403.961 153.82 402.723 156.706C398.387 166.807 393.78 178.085 384.641 184.851C379.171 188.899 360.109 195.436 364.892 183.08C368.97 172.538 382.479 163.204 390.626 155.557C394.402 152.011 403.366 144.733 405.332 139.589C406.83 135.667 403.226 126.438 396.755 128.522C393.818 129.469 393.438 138.053 392.364 140.498C390.665 144.357 387.667 147.382 385.015 150.59C380.813 155.678 376.37 163.136 369.778 165.532C361.852 168.418 359.404 163.777 363.479 156.659C367.464 149.703 376.47 145.225 381.979 139.515C384.72 136.673 393.353 128.361 391.257 124.112C386.692 114.86 380.317 128.394 378.048 131.145C376.27 133.297 365.481 147.187 362.114 144.533C358.067 141.346 367.13 128.505 368.799 125.762C372.32 119.973 373.858 120.298 369.401 117.206C366.856 115.436 361.549 113.919 358.735 114.319C351.828 115.299 344.762 121.674 337.641 123.364C334.694 124.065 324.654 123.907 323.438 128.42C321.565 135.365 351.767 152.01 335.854 155.799C323.555 158.722 311.992 139.675 301.881 147.511C285.903 159.898 311.275 167.435 321.022 170.003C325.392 171.156 339.783 171.656 337.681 179.384C335.97 185.667 324.038 184.281 319.438 183.509C310.723 182.051 302.834 177.831 294.686 174.696C292.487 173.853 283.649 169.058 280.998 170.09C277.202 171.575 272.602 186.399 274.813 189.894C277.539 194.197 292.518 192.696 297.582 192.806C306.14 192.988 316.634 192.679 323.927 198.009C331.978 203.893 322.025 204.811 316.525 204.573C304.657 204.057 292.544 199.86 280.914 197.585C276.858 196.789 270.819 194.628 266.789 195.182C260.686 196.025 261.971 196.448 264.48 201.432C270.076 212.555 275.758 213.807 288.138 214.67C293.785 215.061 318.492 211.811 320.435 219.346C314.365 224.125 299.64 221.511 292.476 221.41C287.234 221.334 278.738 222.542 274.18 220.008C267.975 216.55 260.128 203.657 255.579 198.482C247.509 189.303 239.566 180.17 230.734 171.688C240.371 173.055 249.397 176.109 259.159 173.697C269.831 171.058 280.06 163.928 281.636 152.457C282.212 148.259 281.513 143.951 281.213 139.765C281.115 138.428 281.18 137.054 281.02 135.72C280.321 129.922 280.804 128.033 276.82 132.23C272.288 137.005 269.14 147.876 261.347 149.897C252.717 152.137 257.345 145.671 260.853 141.895C269.516 132.57 278.992 124.457 280.426 110.65C281.208 103.12 280.77 94.8565 279.409 87.3468C278.1 80.1293 276.797 80.3487 274.357 86.2616C269.062 99.0868 260.807 109.653 249.833 118.229C247.73 119.874 243.013 123.899 239.838 121.621C236.964 119.561 239.052 115.664 239.834 112.718C241.557 106.211 244.038 100.179 246.483 93.9238C249.703 85.6842 255.306 74.5682 255.535 65.6935C255.684 59.9309 251.015 57.4563 246.891 53.8451C242.069 49.6202 237.743 45.1194 234.003 39.8993C231.397 36.2629 228.587 30.8075 224.662 28.4182C218.569 24.7074 219.935 29.3369 220.394 33.9673C220.763 37.6661 226.112 74.1968 217.444 72.3195C208.843 70.4595 212.464 36.0784 211.271 28.5315C209.688 18.5336 195.804 19.8914 187.403 18.0656C182.973 17.1003 178.914 16.5955 174.711 14.9614C173.121 14.3428 171.316 11.6451 169.529 12.4581C165.469 14.3014 181.84 29.3374 177.586 34.6661C170.404 43.6627 163.158 19.9034 161.102 15.5697C159.374 11.9246 157.311 7.6556 154.888 4.48727C151.144 -0.405457 150.638 0.7757 145.128 2.41573C139.617 4.05576 126.457 3.91488 122.296 7.55813C118.272 11.0822 123.407 13.6669 126.195 16.8711C128.835 19.9034 137.393 30.1925 130.18 32.3248C127.575 33.0951 118.122 25.4026 115.674 23.821C110.476 20.4606 111.597 21.2262 107.233 22.3279C102.162 23.6052 96.454 25.2453 91.5757 26.9727C85.4577 29.1404 84.0008 30.1692 88.5859 34.5524C93.9633 39.6873 102.014 42.78 104.662 50.1268C105.95 53.2999 105.102 56.8486 101.095 56.912C96.8197 56.9812 94.8746 51.1456 93.2294 48.0181C91.1449 44.0598 87.2329 34.7498 82.1595 33.9186C78.9885 33.3989 75.0766 37.2281 72.394 38.6182C70.8058 39.4401 63.6549 41.5746 63.0788 43.7807C62.4475 46.2034 70.6955 51.455 72.9319 54.0382C78.6381 60.6282 84.7018 68.7699 86.8602 76.7012C88.5264 89.6489 73.5347 73.9161 71.1715 69.9893C68.5494 65.6351 60.1351 43.1235 52.6026 45.4035C50.5515 46.0248 49.2845 51.0229 47.6061 52.6587C45.5498 54.6624 42.9099 55.4684 40.4416 56.7123C36.7823 58.5579 33.1202 60.4022 29.6133 62.4884C28.5296 63.1324 25.5832 65.0056 24.996 65.4303C24.554 65.7519 23.5758 65.5402 23.0387 65.944C19.3701 68.7065 17.6578 74.2941 14.3118 77.6532C12.8104 79.1607 6.13542 83.2764 6.62641 85.4117C7.07351 87.3577 38.8503 88.884 43.6109 89.4118C47.2309 89.8122 62.4322 89.178 64.2887 92.715C66.1036 96.175 63.0313 97.3929 60.0417 98.5386C52.6227 101.382 43.2739 102.055 35.4661 103.452C29.9505 104.438 7.36185 105.843 4.43557 111.325C1.41464 116.985 5.08806 120.86 9.30334 121.636C13.9177 122.49 20.5819 120.542 25.0917 119.891C28.7648 119.361 52.2121 113.551 53.4175 118.957C54.7277 124.839 26.6968 129.774 23.9216 130.52C18.6183 131.947 9.66922 132.202 4.98941 134.927C0.795511 137.374 2.36186 137.658 3.52721 141.675C7.55199 155.557 8.98169 152.843 21.2556 149.724C25.9545 148.529 31.9895 146.394 36.4727 148.97C41.8295 152.042 41.5386 155.891 36.7478 158.542C33.4561 160.366 26.5851 160.796 22.8988 161.334C18.5899 161.965 14.2238 162.183 9.87378 162.231C8.59521 162.246 3.00055 161.317 1.78223 162.14C-3.00416 165.37 8.57307 182.194 13.5706 182.85C15.9963 183.169 19.938 181.514 22.3459 181.048C30.7608 179.409 39.3193 178.541 47.7658 176.983C52.5224 176.107 74.7913 169.595 70.8015 181.13C68.596 187.501 52.4872 190.714 47.144 192.534C42.003 194.286 36.8484 195.848 31.599 197.24C26.6945 198.54 23.838 198.007 27.1044 203.434C30.4297 208.957 50.2333 225.807 56.4511 225.273C61.5526 224.832 59.6568 222.473 65.381 225.877C67.4818 227.13 69.6127 229.191 71.4349 230.812C78.4338 237.027 85.6287 245.994 95.4004 247.732C116.287 251.451 144.81 223.505 158.295 210.525C160.975 207.947 171.215 195.298 176.199 198.125C181.437 201.093 172.35 212.904 170.545 215.17C160.487 227.811 147.953 239.943 133.061 246.519C129.093 248.269 117.979 249.949 114.22 253.041C110.492 256.105 114.306 257.092 118.263 259.699C126.703 265.253 137.985 273.446 148.358 270.042C162.015 265.559 169.344 251.234 176.981 239.99C181.218 233.756 201.069 204.3 201.332 227.397C201.459 238.895 194.173 252.057 186.336 259.964C184.871 261.44 175.397 266.161 175.596 267.284C175.899 268.988 181.578 269.719 182.615 269.942C192.667 272.104 222.859 275.05 227.093 262.107C229.997 253.227 226.458 239.038 225.21 230.108C224.821 227.334 222.878 222.877 226.865 221.994C231.971 220.863 236.349 238.703 236.731 241.53C237.518 247.342 236.642 253.399 234.44 259.395C233.471 262.029 230.817 264.382 234.279 264.794C235.534 264.942 242.556 258.258 243.657 257.142C249.257 251.442 249.637 245.022 249.179 237.465C247.935 217.072 238.449 197.19 227.415 180.23C240.608 193.914 253.196 208.082 265.378 222.678C268.422 226.325 270.561 230.786 273.564 234.306C277.897 239.38 283.231 243.507 287.739 248.925C286.412 248.791 274.919 245.695 274.586 248.826C274.284 251.675 284.031 256.088 286.028 257.143C295.017 261.903 298.554 262.319 305.62 270.939C323.204 292.395 339.27 314.639 355.007 337.461C362.698 348.615 370.798 359.605 377.57 371.353C380.968 377.245 383.694 383.535 386.278 389.818C388.055 394.139 390.287 407.183 395.825 408.568C402.263 410.18 400.686 403.094 399.379 399.754C396.429 392.227 394.285 384.898 392.186 377.041C388.773 364.262 386.203 351.275 382.473 338.569C377.818 322.713 373.984 306.727 370.145 290.662C367.653 280.235 365.512 269.633 363.908 259.028C362.807 251.745 363.083 243.945 361.13 236.808C368.738 243.665 367.257 256.054 379.962 256.94C389.781 257.626 396.876 249.701 402.493 242.708C407.073 237.005 413.657 228.386 414.546 220.893C415.606 211.952 408.113 218.347 402.529 220.284C398.925 221.536 388.99 227.252 386.025 223.839C381.877 219.063 396.677 212.856 399.538 211.037C405.832 207.041 412.811 202.185 417.605 196.328C419.498 194.013 427.341 168.876 418.639 172.291C417.535 172.724 415.998 176.238 415.107 177.474C410.977 183.204 406.284 188.374 401.22 193.286C395.7 198.637 383.65 211.23 374.447 208.503C378.177 197.209 393.795 191.321 402.238 183.916C407.663 179.16 412.36 173.905 415.586 167.385C417.189 164.141 421.267 155.055 419.311 151.607Z" fill="#02362C"/>
</svg>

<svg width="423" height="409" fill="none" xmlns="http://www.w3.org/2000/svg"><path fill-rule="evenodd" clip-rule="evenodd" d="M376.911 354.174c-17.642-31.003-41.305-59.71-64.071-87.055 6.727 1.841 15.603.406 21.735-2.645 6.89-3.427 10.378-9.389 13.165-16.278.396-.977 2.985-11.05 4.876-10.508 3.481 1.002 4.485 23.211 4.86 25.925 1.339 9.689 3.409 19.182 5.579 28.717 4.681 20.552 9.77 41.162 13.856 61.844Zm-75.344-105.243c-4.919.345-8.638-6.613-11.81-10.207 5.312-.205 27.981-6.475 30.691-1.063 4.401 8.804-14.397 10.943-18.881 11.27ZM190.95 81.111c-.021 2.937-.022 14.27-4.603 10.755-3.1-2.38-4.79-13.039-5.751-16.308-1.961-6.662-4.974-14.869-4.63-21.9.653-13.305 9.382-4.227 11.372 2.87 2.197 7.826 3.649 16.426 3.612 24.583Zm35.006 58.29c5.789-3.628 3.466 3.143 1.289 6.372-6.12 9.086-7.474-1.44-1.289-6.372Zm-13.039-31.118c-1.226-6.601-.618-15.559 1.267-21.87 1.48-4.957 6.215-9.574 9.12-3.24 2.412 5.258-2.151 19.08-4.583 24.253-1.976 4.207-4.693 7.782-5.804.857Zm-25.15 2.022c1.083 12.668-9.944 17.305-9.583 2.842.223-8.849 7.648-15.385 9.583-2.842Zm23.318 76.344c.34 5.257-10.707 23.648-11.503 13.5-.227-2.894 10.917-18.237 11.503-13.5ZM178.69 168.92c-3.78 2.451-14.162 10.638-18.091 8.982-6.279-2.649.891-10.072 3.681-11.981 3.047-2.087 11.4-7.197 15.601-6.556 7.705 1.18 2.705 6.785-1.191 9.555Zm-56.753-75.747c-9.373 3.995-12.668-7.165-14.692-13.83-1.323-4.359-5.998-13.475-1.087-16.587 8.826-5.6 18.677 23.192 15.779 30.417Zm31.066 1.313c-1.431-4.472-2.547-9.04-3.948-13.52-.835-2.664-5.201-12.046-4.675-14.276 1.664-7.075 7.379-3.542 10.702 1.645 3.41 5.325 6.975 16.434 6.616 22.543-.333 5.667-5.624 12.253-8.695 3.608Zm-17.289-47.03c-2.46-7.779 2.859-14.32 8.957-5.651 6.9 9.802-3.584 20.164-8.957 5.652Zm13.491 137.513c.358 7.115-23.763 17.84-29.215 14.562-7.178-4.314 7.563-9.682 11.661-11.812 3.461-1.796 16.544-10.906 17.554-2.75Zm-42.752-10.607c-6.121 1.723-12.396 4.117-18.692 4.981-8.647 1.184-8.574-3.669-2.104-8.768 5.655-4.456 16.23-5.533 22.978-8.231 5.391-2.156 21.029-14.505 24.93-10.681 8.792 8.616-21.333 21.015-27.112 22.699Zm1.633 27.729c.244 9.672-25.368 12.912-31.095 13.477 3.843-2.734 29.344-26.814 31.095-13.477Zm-48.47-48.768c-17.358-.578.081-13.215 5.932-15.549 4.246-1.697 14.239-5.466 18.559-1.913 11.336 9.324-20.026 17.632-24.49 17.462Zm1.971-35.348c.398-5.996 29.287-15.031 30.92-9.544 1.285 4.321-29.534 22.126-30.92 9.544Zm41.56 7.234c11.46-7.852 26.976-.474 9.793 8.631-3.372 1.784-12.198 6.603-15.938 3.856-5.283-3.879 3.109-10.529 6.145-12.487Zm316.164 26.398c-2.841-5.03-6.932-12.057-11.638-7.313-1.829 1.84-3.712 9.526-4.95 12.412-4.336 10.101-8.943 21.379-18.082 28.145-5.47 4.048-24.532 10.585-19.749-1.771 4.078-10.542 17.587-19.876 25.734-27.523 3.776-3.546 12.74-10.824 14.706-15.968 1.498-3.922-2.106-13.151-8.577-11.067-2.937.947-3.317 9.531-4.391 11.976-1.699 3.859-4.697 6.884-7.349 10.092-4.202 5.088-8.645 12.546-15.237 14.942-7.926 2.886-10.374-1.755-6.299-8.873 3.985-6.956 12.991-11.434 18.5-17.144 2.741-2.842 11.374-11.154 9.278-15.403-4.565-9.252-10.94 4.282-13.209 7.033-1.778 2.152-12.567 16.042-15.934 13.388-4.047-3.187 5.016-16.028 6.685-18.771 3.521-5.789 5.059-5.464.602-8.556-2.545-1.77-7.852-3.287-10.666-2.887-6.907.98-13.973 7.355-21.094 9.045-2.947.701-12.987.543-14.203 5.056-1.873 6.945 28.329 23.59 12.416 27.379-12.299 2.923-23.862-16.124-33.973-8.288-15.978 12.387 9.394 19.924 19.141 22.492 4.37 1.153 18.761 1.653 16.659 9.381-1.711 6.283-13.643 4.897-18.243 4.125-8.715-1.458-16.604-5.678-24.752-8.813-2.199-.843-11.037-5.638-13.688-4.606-3.796 1.485-8.396 16.309-6.185 19.804 2.726 4.303 17.705 2.802 22.769 2.912 8.558.182 19.052-.127 26.345 5.203 8.051 5.884-1.902 6.802-7.402 6.564-11.868-.516-23.981-4.713-35.611-6.988-4.056-.796-10.095-2.957-14.125-2.403-6.103.843-4.818 1.266-2.309 6.25 5.596 11.123 11.278 12.375 23.658 13.238 5.647.391 30.354-2.859 32.297 4.676-6.07 4.779-20.795 2.165-27.959 2.064-5.242-.076-13.738 1.132-18.296-1.402-6.205-3.458-14.052-16.351-18.601-21.526-8.07-9.179-16.013-18.312-24.845-26.794 9.637 1.367 18.663 4.421 28.425 2.009 10.672-2.639 20.901-9.769 22.477-21.24.576-4.198-.123-8.506-.423-12.692-.098-1.337-.033-2.711-.193-4.045-.699-5.798-.216-7.687-4.2-3.49-4.532 4.775-7.68 15.646-15.473 17.667-8.63 2.24-4.002-4.226-.494-8.002 8.663-9.325 18.139-17.438 19.573-31.245.782-7.53.344-15.794-1.017-23.303-1.309-7.218-2.612-6.998-5.052-1.085-5.295 12.825-13.55 23.391-24.524 31.967-2.103 1.645-6.82 5.67-9.995 3.392-2.874-2.06-.786-5.957-.004-8.903 1.723-6.507 4.204-12.539 6.649-18.794 3.22-8.24 8.823-19.356 9.052-28.23.149-5.763-4.52-8.238-8.644-11.849-4.822-4.225-9.148-8.726-12.888-13.946-2.606-3.636-5.416-9.091-9.341-11.48-6.093-3.712-4.727.918-4.268 5.548.369 3.7 5.718 40.23-2.95 38.353-8.601-1.86-4.98-36.242-6.173-43.788-1.583-9.998-15.467-8.64-23.868-10.466-4.43-.966-8.489-1.47-12.692-3.105-1.59-.618-3.395-3.316-5.182-2.503-4.06 1.843 12.311 16.88 8.057 22.208-7.182 8.997-14.428-14.763-16.484-19.096-1.728-3.645-3.791-7.914-6.214-11.083-3.744-4.892-4.25-3.711-9.76-2.071-5.511 1.64-18.671 1.499-22.832 5.142-4.024 3.524 1.111 6.109 3.899 9.313 2.64 3.032 11.198 13.322 3.985 15.454-2.605.77-12.058-6.922-14.506-8.504-5.198-3.36-4.077-2.595-8.441-1.493-5.071 1.277-10.779 2.917-15.657 4.645-6.118 2.167-7.575 3.196-2.99 7.58 5.377 5.134 13.428 8.227 16.076 15.574 1.288 3.173.44 6.722-3.567 6.785-4.275.07-6.22-5.766-7.866-8.894-2.084-3.958-5.996-13.268-11.07-14.1-3.17-.52-7.082 3.31-9.765 4.7-1.588.822-8.74 2.957-9.315 5.163-.632 2.422 7.616 7.674 9.853 10.257 5.706 6.59 11.77 14.732 13.928 22.663 1.666 12.948-13.325-2.785-15.689-6.712-2.622-4.354-11.036-26.866-18.568-24.586-2.052.622-3.319 5.62-4.997 7.256-2.056 2.003-4.696 2.81-7.164 4.053-3.66 1.846-7.322 3.69-10.829 5.776-1.083.644-4.03 2.518-4.617 2.942-.442.322-1.42.11-1.957.514-3.669 2.763-5.381 8.35-8.727 11.71-1.502 1.507-8.177 5.622-7.686 7.758.448 1.946 32.224 3.472 36.985 4 3.62.4 18.821-.234 20.678 3.303 1.815 3.46-1.258 4.678-4.247 5.824-7.42 2.843-16.768 3.516-24.576 4.913-5.515.986-28.104 2.391-31.03 7.873-3.021 5.66.652 9.535 4.867 10.311 4.615.854 11.279-1.094 15.789-1.745 3.673-.53 27.12-6.34 28.325-.934 1.31 5.882-26.72 10.817-29.495 11.563-5.304 1.427-14.253 1.682-18.933 4.407-4.193 2.447-2.627 2.731-1.462 6.748 4.025 13.882 5.455 11.168 17.729 8.049 4.698-1.195 10.733-3.33 15.217-.754 5.357 3.072 5.066 6.921.275 9.572-3.292 1.824-10.163 2.254-13.85 2.792-4.308.631-8.674.849-13.024.897-1.279.015-6.873-.914-8.092-.091-4.786 3.23 6.791 20.054 11.789 20.71 2.425.319 6.367-1.336 8.775-1.802 8.415-1.639 16.973-2.507 25.42-4.065 4.756-.876 27.025-7.388 23.036 4.147-2.206 6.371-18.315 9.584-23.658 11.404a233.951 233.951 0 0 1-15.545 4.706c-4.904 1.3-7.761.767-4.495 6.194 3.326 5.523 23.13 22.373 29.347 21.839 5.102-.441 3.206-2.8 8.93.604 2.1 1.253 4.232 3.314 6.054 4.935 6.999 6.215 14.194 15.182 23.965 16.92 20.887 3.719 49.41-24.227 62.895-37.207 2.68-2.578 12.92-15.227 17.904-12.4 5.238 2.968-3.849 14.779-5.654 17.045-10.058 12.641-22.592 24.773-37.484 31.349-3.968 1.75-15.082 3.43-18.841 6.522-3.728 3.064.086 4.051 4.043 6.658 8.44 5.554 19.722 13.747 30.095 10.343 13.657-4.483 20.986-18.808 28.623-30.052 4.237-6.234 24.088-35.69 24.351-12.593.127 11.498-7.159 24.66-14.996 32.567-1.465 1.476-10.939 6.197-10.74 7.32.303 1.704 5.982 2.435 7.019 2.658 10.052 2.162 40.244 5.108 44.478-7.835 2.904-8.88-.635-23.069-1.883-31.999-.389-2.774-2.332-7.231 1.655-8.114 5.106-1.131 9.484 16.709 9.866 19.536.787 5.812-.089 11.869-2.291 17.865-.969 2.634-3.623 4.987-.161 5.399 1.255.148 8.277-6.536 9.378-7.652 5.6-5.7 5.98-12.12 5.522-19.677-1.244-20.393-10.73-40.275-21.764-57.235 13.193 13.684 25.781 27.852 37.963 42.448 3.044 3.647 5.183 8.108 8.186 11.628 4.333 5.074 9.667 9.201 14.175 14.619-1.327-.134-12.82-3.23-13.153-.099-.302 2.849 9.445 7.262 11.442 8.317 8.989 4.76 12.526 5.176 19.592 13.796 17.584 21.456 33.65 43.7 49.387 66.522 7.691 11.154 15.791 22.144 22.563 33.892 3.398 5.892 6.124 12.182 8.708 18.465 1.777 4.321 4.009 17.365 9.547 18.75 6.438 1.612 4.861-5.474 3.554-8.814-2.95-7.527-5.094-14.856-7.193-22.713-3.413-12.779-5.983-25.766-9.713-38.472-4.655-15.856-8.489-31.842-12.328-47.907-2.492-10.427-4.633-21.029-6.237-31.634-1.101-7.283-.825-15.083-2.778-22.22 7.608 6.857 6.127 19.246 18.832 20.132 9.819.686 16.914-7.239 22.531-14.232 4.58-5.703 11.164-14.322 12.053-21.815 1.06-8.941-6.433-2.546-12.017-.609-3.604 1.252-13.539 6.968-16.504 3.555-4.148-4.776 10.652-10.983 13.513-12.802 6.294-3.996 13.273-8.852 18.067-14.709 1.893-2.315 9.736-27.452 1.034-24.037-1.104.433-2.641 3.947-3.532 5.183-4.13 5.73-8.823 10.9-13.887 15.812-5.52 5.351-17.57 17.944-26.773 15.217 3.73-11.294 19.348-17.182 27.791-24.587 5.425-4.756 10.122-10.011 13.348-16.531 1.603-3.244 5.681-12.33 3.725-15.778Z" fill="#02362C"/></svg>
